assets/img/safety3.svg

<svg width="100" height="101" viewBox="0 0 100 101" fill="none" xmlns="http://www.w3.org/2000/svg">
<circle cx="50" cy="50.4863" r="50" fill="#00AEEF"/>
<path d="M29.5415 24.1235H70.7332V76.8489H29.5415V24.1235L23.5 29.8903V82.8903H76.5V18.082H35.3083L29.5415 24.1235Z" fill="white"/>
<path d="M60.5726 43.3461L47.1166 56.8021L43.8213 53.5068L39.4275 49.3876L35.3083 53.5068L47.1166 65.3151L64.6917 47.4653L60.5726 43.3461Z" fill="white"/>
</svg>

<svg width="100" height="101" fill="none" xmlns="http://www.w3.org/2000/svg"><circle cx="50" cy="50.486" r="50" fill="#00AEEF"/><path d="M29.541 24.123h41.192V76.85H29.541V24.123L23.5 29.89v53h53V18.082H35.308l-5.767 6.041Z" fill="#fff"/><path d="M60.573 43.346 47.117 56.802l-3.296-3.295-4.393-4.12-4.12 4.12 11.809 11.808 17.575-17.85-4.12-4.119Z" fill="#fff"/></svg>
